;TEST
;*****INITIALIZE MACHINE******
M104 T200
M106 F100
M140 T60
;**********LAYER 0************
G1 X0 Y0 Z0 F60 
G1 X1.2 Y0 F60
G0 X1.2 Y0.3 F100
G1 X0 Y0.3 F60
G0 X0 Y0.6 F100
G1 X1.2 Y0.6 F60
G0 X1.2 Y0.9 F100
G1 X0 Y0.9 F60
G0 X0 Y0 Z0.3 F100
;NEXT LAYER 90 DEG LAYER
G1 X0 Y0 Z0.3 F60 
G1 X1.2 Y0 F60
G0 X1.2 Y0.3 F100
G1 X0 Y0.3 F60
G0 X0 Y0.6 F100
G1 X1.2 Y0.6 F60
G0 X1.2 Y0.9 F100
G1 X0 Y0.9 F60
