;TEST
;*****INITIALIZE MACHINE******
M104 T200
M106 F100
M140 T75
G0 X0 Y0 Z0 F4800
G0 Y0 Z0.0
G1 X1542.0 Y0 Z0.0 E100
G0 X1542.0 Y10.0
G1 X0 E100
G0 Y0 Z4.064
G1 X1542.0 Y0 Z4.064 E100
G0 X1542.0 Y10.0
G1 X0 E100
G0 Y0 Z8.128
G1 X1542.0 Y0 Z8.128 E100
G0 X1542.0 Y10.0
G1 X0 E100
G0 Y0 Z12.192
G1 X1542.0 Y0 Z12.192 E100
G0 X1542.0 Y10.0
G1 X0 E100
G0 Y0 Z16.256
G1 X1542.0 Y0 Z16.256 E100
G0 X1542.0 Y10.0
G1 X0 E100
G0 Y0 Z20.32
G1 X1542.0 Y0 Z20.32 E100
G0 X1542.0 Y10.0
G1 X0 E100
G0 Y0 Z24.384
G1 X1542.0 Y0 Z24.384 E100
G0 X1542.0 Y10.0
G1 X0 E100
G0 Y0 Z28.448
G1 X1542.0 Y0 Z28.448 E100
G0 X1542.0 Y10.0
G1 X0 E100
G0 Y0 Z32.512
G1 X1542.0 Y0 Z32.512 E100
G0 X1542.0 Y10.0
G1 X0 E100
G0 Y0 Z36.576
G1 X1542.0 Y0 Z36.576 E100
G0 X1542.0 Y10.0
G1 X0 E100
G0 Y0 Z40.64
G1 X1542.0 Y0 Z40.64 E100
G0 X1542.0 Y10.0
G1 X0 E100
G0 Y0 Z44.704
G1 X1542.0 Y0 Z44.704 E100
G0 X1542.0 Y10.0
G1 X0 E100
G0 Y0 Z48.768
G1 X1542.0 Y0 Z48.768 E100
G0 X1542.0 Y10.0
G1 X0 E100
G0 Y0 Z52.832
G1 X1542.0 Y0 Z52.832 E100
G0 X1542.0 Y10.0
G1 X0 E100
G0 Y0 Z56.896
G1 X1542.0 Y0 Z56.896 E100
G0 X1542.0 Y10.0
G1 X0 E100
G0 Y0 Z60.96
G1 X1542.0 Y0 Z60.96 E100
G0 X1542.0 Y10.0
G1 X0 E100
G0 Y0 Z65.024
G1 X1542.0 Y0 Z65.024 E100
G0 X1542.0 Y10.0
G1 X0 E100
G0 Y0 Z69.088
G1 X1542.0 Y0 Z69.088 E100
G0 X1542.0 Y10.0
G1 X0 E100
G0 Y0 Z73.152
G1 X1542.0 Y0 Z73.152 E100
G0 X1542.0 Y10.0
G1 X0 E100
G0 Y0 Z77.21600000000001
G1 X1542.0 Y0 Z77.21600000000001 E100
G0 X1542.0 Y10.0
G1 X0 E100
G0 Y0 Z81.28
G1 X1542.0 Y0 Z81.28 E100
G0 X1542.0 Y10.0
G1 X0 E100
G0 Y0 Z85.344
G1 X1542.0 Y0 Z85.344 E100
G0 X1542.0 Y10.0
G1 X0 E100
G0 Y0 Z89.408
G1 X1542.0 Y0 Z89.408 E100
G0 X1542.0 Y10.0
G1 X0 E100
G0 Y0 Z93.47200000000001
G1 X1542.0 Y0 Z93.47200000000001 E100
G0 X1542.0 Y10.0
G1 X0 E100
G0 Y0 Z97.536
G1 X1542.0 Y0 Z97.536 E100
G0 X1542.0 Y10.0
G1 X0 E100
G0 Y0 Z101.6
G1 X1542.0 Y0 Z101.6 E100
G0 X1542.0 Y10.0
G1 X0 E100
G0 Y0 Z105.664
G1 X1542.0 Y0 Z105.664 E100
G0 X1542.0 Y10.0
G1 X0 E100
G0 Y0 Z109.72800000000001
G1 X1542.0 Y0 Z109.72800000000001 E100
G0 X1542.0 Y10.0
G1 X0 E100
G0 Y0 Z113.792
G1 X1542.0 Y0 Z113.792 E100
G0 X1542.0 Y10.0
G1 X0 E100
G0 Y0 Z117.856
G1 X1542.0 Y0 Z117.856 E100
G0 X1542.0 Y10.0
G1 X0 E100
G0 Y0 Z121.92
G1 X1542.0 Y0 Z121.92 E100
G0 X1542.0 Y10.0
G1 X0 E100
G0 Y0 Z125.98400000000001
G1 X1542.0 Y0 Z125.98400000000001 E100
G0 X1542.0 Y10.0
G1 X0 E100
G0 Y0 Z130.048
G1 X1542.0 Y0 Z130.048 E100
G0 X1542.0 Y10.0
G1 X0 E100
G0 Y0 Z134.112
G1 X1542.0 Y0 Z134.112 E100
G0 X1542.0 Y10.0
G1 X0 E100
G0 Y0 Z138.176
G1 X1542.0 Y0 Z138.176 E100
G0 X1542.0 Y10.0
G1 X0 E100
G0 Y0 Z142.24
G1 X1542.0 Y0 Z142.24 E100
G0 X1542.0 Y10.0
G1 X0 E100
G0 Y0 Z146.304
G1 X1542.0 Y0 Z146.304 E100
G0 X1542.0 Y10.0
G1 X0 E100
G0 Y0 Z150.368
G1 X1542.0 Y0 Z150.368 E100
G0 X1542.0 Y10.0
G1 X0 E100
G0 Y0 Z154.43200000000002
G1 X1542.0 Y0 Z154.43200000000002 E100
G0 X1542.0 Y10.0
G1 X0 E100
G0 Y0 Z158.496
G1 X1542.0 Y0 Z158.496 E100
G0 X1542.0 Y10.0
G1 X0 E100
G0 Y0 Z162.56
G1 X1542.0 Y0 Z162.56 E100
G0 X1542.0 Y10.0
G1 X0 E100
G0 Y0 Z166.624
G1 X1542.0 Y0 Z166.624 E100
G0 X1542.0 Y10.0
G1 X0 E100
G0 Y0 Z170.688
G1 X1542.0 Y0 Z170.688 E100
G0 X1542.0 Y10.0
G1 X0 E100
G0 Y0 Z174.752
G1 X1542.0 Y0 Z174.752 E100
G0 X1542.0 Y10.0
G1 X0 E100
G0 Y0 Z178.816
G1 X1542.0 Y0 Z178.816 E100
G0 X1542.0 Y10.0
G1 X0 E100
G0 Y0 Z182.88
G1 X1542.0 Y0 Z182.88 E100
G0 X1542.0 Y10.0
G1 X0 E100
G0 Y0 Z186.94400000000002
G1 X1542.0 Y0 Z186.94400000000002 E100
G0 X1542.0 Y10.0
G1 X0 E100
G0 Y0 Z191.008
G1 X1542.0 Y0 Z191.008 E100
G0 X1542.0 Y10.0
G1 X0 E100
G0 Y0 Z195.072
G1 X1542.0 Y0 Z195.072 E100
G0 X1542.0 Y10.0
G1 X0 E100
G0 Y0 Z199.136
G1 X1542.0 Y0 Z199.136 E100
G0 X1542.0 Y10.0
G1 X0 E100
G0 Y0 Z203.2
G1 X1542.0 Y0 Z203.2 E100
G0 X1542.0 Y10.0
G1 X0 E100
G0 Y0 Z207.264
G1 X1542.0 Y0 Z207.264 E100
G0 X1542.0 Y10.0
G1 X0 E100
G0 Y0 Z211.328
G1 X1542.0 Y0 Z211.328 E100
G0 X1542.0 Y10.0
G1 X0 E100
G0 Y0 Z215.392
G1 X1542.0 Y0 Z215.392 E100
G0 X1542.0 Y10.0
G1 X0 E100
G0 Y0 Z219.45600000000002
G1 X1542.0 Y0 Z219.45600000000002 E100
G0 X1542.0 Y10.0
G1 X0 E100
G0 Y0 Z223.52
G1 X1542.0 Y0 Z223.52 E100
G0 X1542.0 Y10.0
G1 X0 E100
G0 Y0 Z227.584
G1 X1542.0 Y0 Z227.584 E100
G0 X1542.0 Y10.0
G1 X0 E100
G0 Y0 Z231.648
G1 X1542.0 Y0 Z231.648 E100
G0 X1542.0 Y10.0
G1 X0 E100
G0 Y0 Z235.712
G1 X1542.0 Y0 Z235.712 E100
G0 X1542.0 Y10.0
G1 X0 E100
G0 Y0 Z239.776
G1 X1542.0 Y0 Z239.776 E100
G0 X1542.0 Y10.0
G1 X0 E100
G0 Y0 Z243.84
G1 X1542.0 Y0 Z243.84 E100
G0 X1542.0 Y10.0
G1 X0 E100
G0 Y0 Z247.904
G1 X1542.0 Y0 Z247.904 E100
G0 X1542.0 Y10.0
G1 X0 E100
G0 Y0 Z251.96800000000002
G1 X1542.0 Y0 Z251.96800000000002 E100
G0 X1542.0 Y10.0
G1 X0 E100
G0 Y0 Z256.032
G1 X1542.0 Y0 Z256.032 E100
G0 X1542.0 Y10.0
G1 X0 E100
G0 Y0 Z260.096
G1 X1542.0 Y0 Z260.096 E100
G0 X1542.0 Y10.0
G1 X0 E100
G0 Y0 Z264.16
G1 X1542.0 Y0 Z264.16 E100
G0 X1542.0 Y10.0
G1 X0 E100
G0 Y0 Z268.224
G1 X1542.0 Y0 Z268.224 E100
G0 X1542.0 Y10.0
G1 X0 E100
G0 Y0 Z272.288
G1 X1542.0 Y0 Z272.288 E100
G0 X1542.0 Y10.0
G1 X0 E100
G0 Y0 Z276.352
G1 X1542.0 Y0 Z276.352 E100
G0 X1542.0 Y10.0
G1 X0 E100
G0 Y0 Z280.416
G1 X1542.0 Y0 Z280.416 E100
G0 X1542.0 Y10.0
G1 X0 E100
G0 Y0 Z284.48
G1 X1542.0 Y0 Z284.48 E100
G0 X1542.0 Y10.0
G1 X0 E100
G0 Y0 Z288.544
G1 X1542.0 Y0 Z288.544 E100
G0 X1542.0 Y10.0
G1 X0 E100
G0 Y0 Z292.608
G1 X1542.0 Y0 Z292.608 E100
G0 X1542.0 Y10.0
G1 X0 E100
G0 Y0 Z296.672
G1 X1542.0 Y0 Z296.672 E100
G0 X1542.0 Y10.0
G1 X0 E100
G0 Y0 Z300.736
G1 X1542.0 Y0 Z300.736 E100
G0 X1542.0 Y10.0
G1 X0 E100
G0 Y0 Z304.8
G1 X1542.0 Y0 Z304.8 E100
G0 X1542.0 Y10.0
G1 X0 E100
G0 Y0 Z308.86400000000003
G1 X1542.0 Y0 Z308.86400000000003 E100
G0 X1542.0 Y10.0
G1 X0 E100
G0 Y0 Z312.928
G1 X1542.0 Y0 Z312.928 E100
G0 X1542.0 Y10.0
G1 X0 E100
G0 Y0 Z316.992
G1 X1542.0 Y0 Z316.992 E100
G0 X1542.0 Y10.0
G1 X0 E100
G0 Y0 Z321.056
G1 X1542.0 Y0 Z321.056 E100
G0 X1542.0 Y10.0
G1 X0 E100
G0 Y0 Z325.12
G1 X1542.0 Y0 Z325.12 E100
G0 X1542.0 Y10.0
G1 X0 E100
G0 Y0 Z329.184
G1 X1542.0 Y0 Z329.184 E100
G0 X1542.0 Y10.0
G1 X0 E100
G0 Y0 Z333.248
G1 X1542.0 Y0 Z333.248 E100
G0 X1542.0 Y10.0
G1 X0 E100
G0 Y0 Z337.312
G1 X1542.0 Y0 Z337.312 E100
G0 X1542.0 Y10.0
G1 X0 E100
G0 Y0 Z341.376
G1 X1542.0 Y0 Z341.376 E100
G0 X1542.0 Y10.0
G1 X0 E100
G0 Y0 Z345.44
G1 X1542.0 Y0 Z345.44 E100
G0 X1542.0 Y10.0
G1 X0 E100
G0 Y0 Z349.504
G1 X1542.0 Y0 Z349.504 E100
G0 X1542.0 Y10.0
G1 X0 E100
G0 Y0 Z353.568
G1 X1542.0 Y0 Z353.568 E100
G0 X1542.0 Y10.0
G1 X0 E100
